X: 3
T: The Stack Of Barley
R: hornpipe
M: 4/4
L: 1/8
K: Gmaj
|: g>f |e>fe>d B>ed>B | A>GE>G A>cB>A | G>FG>A B>G (3Bcd | e>cd>B A2- A>f |
e>fe>d B>ed>B | A>G (3EFG (3ABc B2 | G>FG>A (3Bcd (3ABc | B2 G2 G2- :|
|: (3FGA |B2- B>d (3gfe f>g | a2- a>f e>d (3Bcd | (3gag f>g e>dB>d | e>A (3AAA A2 (3efg |
a>^g (3a=gf g>ed>B | c>BA>G (3ABc B>A | G>FG>A (3Bcd A>c | B2 G2 G2- :|


Tune 2224	Setting 15590

